src/assets/svg/icons/fa/nuevos/classic/thin/bed-pulse classic thin.svg

<svg xmlns="http://www.w3.org/2000/svg" viewBox="0 0 640 512"><path d="M359.3 176H312C298.7 176 288 186.7 288 200V352H624V264C624 215.4 584.6 176 536 176H439.9L446.3 160H536C593.4 160 640 206.6 640 264V504C640 508.4 636.4 512 632 512C627.6 512 624 508.4 624 504V448H16V504C16 508.4 12.42 512 8 512C3.582 512 0 508.4 0 504V72C0 67.58 3.582 64 8 64C12.42 64 16 67.58 16 72V352H272V200C272 177.9 289.9 160 312 160H351.3L359.3 176zM16 432H624V368H16V432zM64 240C64 195.8 99.82 160 144 160C188.2 160 224 195.8 224 240C224 284.2 188.2 320 144 320C99.82 320 64 284.2 64 240zM144 304C179.3 304 208 275.3 208 240C208 204.7 179.3 176 144 176C108.7 176 80 204.7 80 240C80 275.3 108.7 304 144 304zM463.7 .0069C466.8-.1239 469.7 1.605 471.2 4.422L500.9 64H632C636.4 64 640 67.58 640 72C640 76.42 636.4 80 632 80H496C492.1 80 490.2 78.29 488.8 75.58L464.8 27.51L407.4 170.1C406.3 173.9 403.5 175.9 400.3 175.1C397.2 176.1 394.3 174.4 392.8 171.6L347.1 80H200C195.6 80 192 76.42 192 72C192 67.58 195.6 64 200 64H352C355 64 357.8 65.71 359.2 68.42L399.2 148.5L456.6 5.029C457.7 2.104 460.5 .1381 463.7 .0069V.0069z"/></svg>

<svg xmlns="http://www.w3.org/2000/svg" viewBox="0 0 640 512"><!--! Font Awesome Pro 6.4.0 by @fontawesome - https://fontawesome.com License - https://fontawesome.com/license (Commercial License) Copyright 2023 Fonticons, Inc. --><path d="M471.2 4.4L500.9 64H632c4.4 0 8 3.6 8 8s-3.6 8-8 8H496c-3 0-5.8-1.7-7.2-4.4l-24-48.1L407.4 171c-1.2 2.9-3.9 4.9-7.1 5s-6.1-1.6-7.5-4.4L347.1 80H200c-4.4 0-8-3.6-8-8s3.6-8 8-8H352c3 0 5.8 1.7 7.2 4.4l40 80.1L456.6 5c1.2-2.9 3.9-4.9 7.1-5s6.1 1.6 7.5 4.4zM312 160h39.3l8 16H312c-13.3 0-24 10.7-24 24V352H624V264c0-48.6-39.4-88-88-88H439.9l6.4-16H536c57.4 0 104 46.6 104 104v96 80 64c0 4.4-3.6 8-8 8s-8-3.6-8-8V448H16v56c0 4.4-3.6 8-8 8s-8-3.6-8-8V440 360 72c0-4.4 3.6-8 8-8s8 3.6 8 8V352H272V200c0-22.1 17.9-40 40-40zM624 432V368H280 16v64H624zM208 240A64 64 0 1 0 80 240a64 64 0 1 0 128 0zM64 240a80 80 0 1 1 160 0A80 80 0 1 1 64 240z"/></svg>
